!!!OTL: WENN GRUEN DIE EICHEN STEHEN
!!!ARE: Europa, Mitteleuropa, Deutschland, Wetterau; Lahnkreis; Dillkreis
!!!SCT: E0191A
!!!YEM: Copyright 1995, estate of Helmut Schaffrath.
**kern
*ICvox
*Ivox
*M4/4
*k[f#c#]
*D:
{8A
8F#
8A
=1
4.d
8A
8F#
8A
8B
8A
=2
8A
8G
4G
8r}
{8d
8c#
8d
=3
4.e
8d
8c#
8B
8A
8G
=4
2F#
8r}
{8A
8A
8d
=5
4.f#
8e
8d
8c#
8B
8A
=6
8A
8G
4G
8r}
{8e
8d
8F#
=7
4.B
8B
8A
8A
8B
8c#
=8
2d
8r}
{8A
8A
8d
=9
4.f#
8e
8d
8c#
8B
8A
=10
8A
8G
4G
8r}
{8e
8d
8F#
=11
4.B
8B
8A
8A
8B
8c#
=12
2d
8r}
==
!!!AGN: erzaehlendes Volks - Lied, Sage, Familien - Geschichte
!!!ONB: ESAC (Essen Associative Code) Database: ERK1
!!!AMT: simple quadruple
!!!AIN: vox
!!!EED: Helmut Schaffrath
!!!EEV: 1.0
*-
